X:1
T:Title
%%score { ( 1 3 ) | ( 2 4 ) }
L:1/8
M:4/4
K:Bb
V:1 treble nm="Grand Piano"
V:3 treble 
V:2 bass 
V:4 bass 
V:1
 z4 z2[Q:1/4=100] [DF]>[CE] | [B,D]2 [DF]2 [DB]2 [Fd]>[^Fc] | [GB]2 [EG]2 [DF]2 A>B | %3
 c2 =B2 c2 F>F |[M:9/8] [FB]2 [Fd]- [Fd] [Fc]2- [Fc][FB]>c |[M:4/4] d3 c B2 F>F | %6
 G2 B2 F2 [DF]>[_DG] | [CA]2 [CA]2 [Cc]2 [Cc]>[DB] |[M:7/8] A2 z z z z2 |[M:1/4] F>F | %10
[M:4/4] d2 c2 G2 A>c | [DB]2 [B,D]2 [DF]2 [DF]>[DF] | d2 c2 G2 A>c | [DB]2 [_DG]2 [F,=DF]2 z2 | %14
 [FBd]>[Bd] [FBd]>[Bd] [FBd]>[Bd] [FBd]>[Bd] | [Fce]>[ce] [ce]>[ce] [ce]2 z2 | %16
 [FAce]>[Ace] [FAce]>[Ace] [FAce]>[Ace] [FAce]>[Ace] | [FBd]>d d>d d2 F2 | [Fd]3 [FA] [Fc]2 [FB]2 | %19
 [EG]6 [Ge]2 | d3 c B2 A2 |[M:3/4] [DB]6 |] %22
V:2
 z4 z2 [B,,B,]>[B,,F,] | [B,,F,]2 [B,,B,]2 [B,,B,]2 [B,,B,]>[D,A,] | %2
 [E,G,]2 [E,B,]2 [B,,B,]2 [F,C]>[F,D] | [F,A,E]2 [F,_A,D]2 [F,=A,E]2 [E,A,]>[E,A,] | %4
[M:9/8] [D,B,]2 [B,,B,]- [B,,B,] [F,A,]2- [F,A,][D,B,]>[K:treble][F,A,F] | %5
[M:4/4] [B,F]3[K:bass] [F,A,E] [G,B,D]2 [D,B,]>[D,B,] | [E,B,E]2 [G,B,E]2 [B,D]2 [B,,B,]>[B,,F,] | %7
 [C,F,]2 [C,F,]2 [A,,F,]2 [A,,F,]>[B,,F,] |[M:7/8] [F,C]A, C,2 [F,A,]3 |[M:1/4] [F,A,]>[F,A,] | %10
[M:4/4] [F,A,E]2 [F,A,E]2 [F,CE]2 [F,CE]>[F,A,E] | [B,,B,]2 [B,,F,]2 [B,,B,]2 [B,,B,]>[B,,B,] | %12
 [F,A,E]2 [F,A,E]2 [F,B,E]2 [F,CE]>[F,A,E] | [B,,F,]2 [B,,=E,]2 B,,2 D,>E, | %14
 z z/[K:treble] F/ z z/ F/ z z/ F/ z z/ F/ | z z/ F/ F>F F2[K:bass] C,>D, | %16
 z z/ F/ z z/[K:treble] F/ z z/ F/ z z/ F/ | z z/ [FB]/ [FB]>[FB] [FB]2[K:bass] F,2 | %18
 [B,,B,]3 [D,B,] [D,B,]2 [D,B,]2 | [E,B,]6 [E,B,]2 | [F,B,F]3 [F,EF] [F,DF]2 [F,CE]2 | %21
[M:3/4] [B,,B,]6 |] %22
V:3
 x8 | x8 | x8 | x8 |[M:9/8] x9 |[M:4/4] x8 | x8 | x8 |[M:7/8] z F [B,=EG]2 F3 |[M:1/4] x2 | %10
[M:4/4] x8 | x8 | x8 | x8 | x8 | x8 | x8 | x8 | x8 | x8 | x8 |[M:3/4] x6 |] %22
V:4
 x8 | x8 | x8 | x8 |[M:9/8] x17/2[K:treble] x/ |[M:4/4] x3[K:bass] x5 | x8 | x8 | %8
[M:7/8] C,2 z z z z2 |[M:1/4] x2 |[M:4/4] x8 | x8 | x8 | x8 | F,2[K:treble] G,2 A,2 B,2 | %15
 A,6[K:bass] z2 | E,2 F,2[K:treble] G,2 A,2 | F,6[K:bass] z2 | x8 | x8 | x8 |[M:3/4] x6 |] %22

